(1001)
(T1  D=0.25 CR=0 - ZMIN=-0.19 - FLAT END MILL)
G0 G40 G90 G17
G20

(2D CONTOUR1)
T1 M6
M3 S5000
G0 X-13.4195 Y-3.3511
G0 Z0.2
G1 Z0.1644 F13.3
G1 Z-0.1
G1 Y-3.3508 Z-0.1039 F39.4
G1 Y-3.3499 Z-0.1077
G1 Y-3.3484 Z-0.1113
G1 Y-3.3463 Z-0.1147
G1 Y-3.3438 Z-0.1177
G1 Y-3.3408 Z-0.1202
G1 Y-3.3375 Z-0.1223
G1 Y-3.3338 Z-0.1238
G1 Y-3.33 Z-0.1247
G1 Y-3.3261 Z-0.125
G1 Y-3.3011
G2 X-13.3945 Y-3.2761 I0.025 J0
G1 X-4.5195 F27.6
G3 X-4.3945 Y-3.1511 I0 J0.125
G1 Y-1.0261
G1 X-3.8945
G3 X-3.7695 Y-0.9011 I0 J0.125
G1 Y20.8489
G3 X-3.8945 Y20.9739 I-0.125 J0
G1 X-22.8945
G3 X-23.0195 Y20.8489 I0 J-0.125
G1 Y-0.9011
G3 X-22.8945 Y-1.0261 I0.125 J0
G1 X-22.3945
G1 Y-3.1511
G3 X-22.2695 Y-3.2761 I0.125 J0
G1 X-13.3945
G2 X-13.3695 Y-3.3011 I0 J-0.025 F39.4
G1 Y-3.3261
G1 Y-3.33 Z-0.1247
G1 Y-3.3338 Z-0.1238
G1 Y-3.3375 Z-0.1223
G1 Y-3.3408 Z-0.1202
G1 Y-3.3438 Z-0.1177
G1 Y-3.3463 Z-0.1147
G1 Y-3.3484 Z-0.1113
G1 Y-3.3499 Z-0.1077
G1 Y-3.3508 Z-0.1039
G1 Y-3.3511 Z-0.1
G0 Z0.2
G0 X-13.4195
G1 Z0.0394 F13.3
G1 Z-0.165
G1 Y-3.3508 Z-0.1689 F39.4
G1 Y-3.3499 Z-0.1727
G1 Y-3.3484 Z-0.1763
G1 Y-3.3463 Z-0.1797
G1 Y-3.3438 Z-0.1827
G1 Y-3.3408 Z-0.1852
G1 Y-3.3375 Z-0.1873
G1 Y-3.3338 Z-0.1888
G1 Y-3.33 Z-0.1897
G1 Y-3.3261 Z-0.19
G1 Y-3.3011
G2 X-13.3945 Y-3.2761 I0.025 J0
G1 X-8.6948 F27.6
G1 Z-0.1275
G1 X-8.1948
G1 Z-0.19 F13.3
G1 X-4.5195 F27.6
G3 X-4.3945 Y-3.1511 I0 J0.125
G1 Y-1.0261
G1 X-3.8945
G3 X-3.7695 Y-0.9011 I0 J0.125
G1 Y3.3246
G1 Z-0.1275
G1 Y3.8246
G1 Z-0.19 F13.3
G1 Y17.9941 F27.6
G1 Z-0.1275
G1 Y18.4941
G1 Z-0.19 F13.3
G1 Y20.8489 F27.6
G3 X-3.8945 Y20.9739 I-0.125 J0
G1 X-4.872
G1 Z-0.1275
G1 X-5.372
G1 Z-0.19 F13.3
G1 X-17.3907 F27.6
G1 Z-0.1275
G1 X-18.3296
G1 Z-0.19 F13.3
G1 X-22.8945 F27.6
G3 X-23.0195 Y20.8489 I0 J-0.125
G1 Y14.7244
G1 Z-0.1275
G1 Y14.2244
G1 Z-0.19 F13.3
G1 Y4.8358 F27.6
G1 Z-0.1275
G1 Y4.3358
G1 Z-0.19 F13.3
G1 Y-0.9011 F27.6
G3 X-22.8945 Y-1.0261 I0.125 J0
G1 X-22.3945
G1 Y-3.1511
G3 X-22.2695 Y-3.2761 I0.125 J0
G1 X-20.0245
G1 Z-0.1275
G1 X-19.5245
G1 Z-0.19 F13.3
G1 X-13.3945 F27.6
G2 X-13.3695 Y-3.3011 I0 J-0.025 F39.4
G1 Y-3.3261
G1 Y-3.33 Z-0.1897
G1 Y-3.3338 Z-0.1888
G1 Y-3.3375 Z-0.1873
G1 Y-3.3408 Z-0.1852
G1 Y-3.3438 Z-0.1827
G1 Y-3.3463 Z-0.1797
G1 Y-3.3484 Z-0.1763
G1 Y-3.3499 Z-0.1727
G1 Y-3.3508 Z-0.1689
G1 Y-3.3511 Z-0.165
G0 Z0.2

M5
M30
